X: 36266
T: Seamie's Cats
R: reel
M: 4/4
K: Dmajor
"D"FA (3AAA BAFA|"G"dABA dABA|"D"FA (3AAA BAFA|dBAFE2DE|
"D"FA (3AAA BAFA|"G"dABA dABA|"D"(3ddd cd "G"BAFD|1 "A"EDEF "D"D2 DE:|2 "A"EDEF "D" D4||
|:"A"fe3 ef (3efe|"D"fedB "G"BAB2|Bc ~d2 "D"AFAB|AF "A"EDEFE2|
f e3 ef e2|"D"fed "G"BBAB2|Bc "D"~d2 AFAB|AF "A"EDEF "D"D2:|

